Papirus-Mer/32x32/mimetypes/application-x-compress.svg

<?xml version="1.0" encoding="UTF-8" standalone="no"?>
<svg
   xmlns:dc="http://purl.org/dc/elements/1.1/"
   xmlns:cc="http://creativecommons.org/ns#"
   xmlns:rdf="http://www.w3.org/1999/02/22-rdf-syntax-ns#"
   xmlns:svg="http://www.w3.org/2000/svg"
   xmlns="http://www.w3.org/2000/svg"
   xmlns:sodipodi="http://sodipodi.sourceforge.net/DTD/sodipodi-0.dtd"
   xmlns:inkscape="http://www.inkscape.org/namespaces/inkscape"
   width="32"
   height="32"
   version="1"
   id="svg24"
   sodipodi:docname="application-x-compress.svg"
   inkscape:version="0.92.4 5da689c313, 2019-01-14">
  <metadata
     id="metadata30">
    <rdf:RDF>
      <cc:Work
         rdf:about="">
        <dc:format>image/svg+xml</dc:format>
        <dc:type
           rdf:resource="http://purl.org/dc/dcmitype/StillImage" />
        <dc:title></dc:title>
      </cc:Work>
    </rdf:RDF>
  </metadata>
  <defs
     id="defs28" />
  <sodipodi:namedview
     pagecolor="#ffffff"
     bordercolor="#666666"
     borderopacity="1"
     objecttolerance="10"
     gridtolerance="10"
     guidetolerance="10"
     inkscape:pageopacity="0"
     inkscape:pageshadow="2"
     inkscape:window-width="640"
     inkscape:window-height="480"
     id="namedview26"
     showgrid="false"
     inkscape:zoom="9.4780273"
     inkscape:cx="14.153624"
     inkscape:cy="16"
     inkscape:window-x="0"
     inkscape:window-y="26"
     inkscape:window-maximized="0"
     inkscape:current-layer="svg24" />
  <path
     style="opacity:0.2"
     d="M 7.25,5 C 6.5575,5 6,5.5575 6,6.25 v 22.5 C 6,29.442 6.5575,30 7.25,30 h 17.5 C 25.442,30 26,29.442 26,28.75 V 13 L 19.125,11.875 18,5 Z"
     id="path2" />
  <path
     fill="#8bc34a"
     d="m7.25 4c-0.6925 0-1.25 0.5575-1.25 1.25v22.5c0 0.692 0.5575 1.25 1.25 1.25h17.5c0.692 0 1.25-0.558 1.25-1.25v-15.75l-6.875-1.125-1.125-6.875z"
     id="path4"
     style="fill:#ff6600" />
  <path
     fill="#fff"
     opacity=".2"
     d="m7.25 4c-0.6925 0-1.25 0.5575-1.25 1.25v1c0-0.6925 0.5575-1.25 1.25-1.25h10.75v-1z"
     id="path6" />
  <path
     style="opacity:0.2"
     d="M 18,5.0003 V 11.667 C 18,12.403 18.597,13 19.333,13 H 26 L 18,5 Z"
     id="path8" />
  <path
     fill="#c5e1a5"
     d="m18 4v6.6667c0 0.736 0.597 1.333 1.333 1.333h6.667l-8-8z"
     id="path10"
     style="fill:#ff9900" />
  <g
     id="g22"
     style="fill:#000000">
    <path
       style="opacity:0.2;fill:#000000"
       d="m 13,4 v 9 c 0,1.1 0.895,2 2,2 1.105,0 2,-0.9 2,-2 V 4 Z"
       id="path12"
       inkscape:connector-curvature="0" />
    <path
       style="opacity:0.2;fill:#000000"
       d="m 15,15 c -1.105333,0 -2,0.9 -2,2 v 4 c 0,1.1 0.895,2 2,2 1.105,0 2,-0.9 2,-2 v -4 c 0,-1.1 -0.894667,-2 -2,-2 z m 0,1 c 0.552,0 1,0.4 1,1 0,0.499999 -0.448,1 -1,1 -0.552,0 -1,-0.500001 -1,-1 0,-0.6 0.448,-1 1,-1 z m 0,3 c 0.552285,0 1,0.447715 1,1 v 1 c 0,0.552285 -0.447715,1 -1,1 -0.552285,0 -1,-0.447715 -1,-1 v -1 c 0,-0.552285 0.447715,-1 1,-1 z"
       id="path14"
       inkscape:connector-curvature="0" />
    <path
       style="fill:#000000"
       d="m 15,14 c -1.105333,0 -2,0.9 -2,2 v 4 c 0,1.1 0.895,2 2,2 1.105,0 2,-0.9 2,-2 v -4 c 0,-1.1 -0.894667,-2 -2,-2 z m 0,1 c 0.552,0 1,0.4 1,1 0,0.499999 -0.448,1 -1,1 -0.552,0 -1,-0.500001 -1,-1 0,-0.6 0.448,-1 1,-1 z m 0,3 c 0.552285,0 1,0.447715 1,1 v 1 c 0,0.552285 -0.447715,1 -1,1 -0.552285,0 -1,-0.447715 -1,-1 v -1 c 0,-0.552285 0.447715,-1 1,-1 z"
       id="path16"
       inkscape:connector-curvature="0" />
    <path
       style="opacity:0.5;fill:#000000"
       d="m 14,4 v 1 h 1 V 4 Z m 0,2 v 1 h 1 V 6 Z m 0,2 v 1 h 1 V 8 Z m 0,2 v 1 h 1 v -1 z m 0,2 v 1 h 1 v -1 z"
       id="path18"
       inkscape:connector-curvature="0" />
    <path
       style="opacity:0.3;fill:#000000"
       d="m 15,5 v 1 h 1 V 5 Z m 0,2 v 1 h 1 V 7 Z m 0,2 v 1 h 1 V 9 Z m 0,2 v 1 h 1 v -1 z m 0,2 v 1 h 1 v -1 z"
       id="path20"
       inkscape:connector-curvature="0" />
  </g>
</svg>

<svg xmlns="http://www.w3.org/2000/svg" width="32" height="32" version="1">
 <path style="opacity:0.2" d="M 7.25,5 C 6.5575,5 6,5.5575 6,6.25 v 22.5 C 6,29.442 6.5575,30 7.25,30 h 17.5 C 25.442,30 26,29.442 26,28.75 V 13 L 19.125,11.875 18,5 Z"/>
 <path fill="#8bc34a" d="m7.25 4c-0.6925 0-1.25 0.5575-1.25 1.25v22.5c0 0.692 0.5575 1.25 1.25 1.25h17.5c0.692 0 1.25-0.558 1.25-1.25v-15.75l-6.875-1.125-1.125-6.875z"/>
 <path fill="#fff" opacity=".2" d="m7.25 4c-0.6925 0-1.25 0.5575-1.25 1.25v1c0-0.6925 0.5575-1.25 1.25-1.25h10.75v-1z"/>
 <path style="opacity:0.2" d="M 18,5.0003 V 11.667 C 18,12.403 18.597,13 19.333,13 H 26 L 18,5 Z"/>
 <path fill="#c5e1a5" d="m18 4v6.6667c0 0.736 0.597 1.333 1.333 1.333h6.667l-8-8z"/>
 <g>
  <path style="opacity:0.2" d="m 13,4 v 9 c 0,1.1 0.895,2 2,2 1.105,0 2,-0.9 2,-2 V 4 Z"/>
  <path style="opacity:0.2" d="m 15,15 c -1.105333,0 -2,0.9 -2,2 v 4 c 0,1.1 0.895,2 2,2 1.105,0 2,-0.9 2,-2 v -4 c 0,-1.1 -0.894667,-2 -2,-2 z m 0,1 c 0.552,0 1,0.4 1,1 0,0.499999 -0.448,1 -1,1 -0.552,0 -1,-0.500001 -1,-1 0,-0.6 0.448,-1 1,-1 z m 0,3 c 0.552285,0 1,0.447715 1,1 v 1 c 0,0.552285 -0.447715,1 -1,1 -0.552285,0 -1,-0.447715 -1,-1 v -1 c 0,-0.552285 0.447715,-1 1,-1 z"/>
  <path style="fill:#ffffff" d="M 15 14 C 13.894667 14 13 14.9 13 16 L 13 20 C 13 21.1 13.895 22 15 22 C 16.105 22 17 21.1 17 20 L 17 16 C 17 14.9 16.105333 14 15 14 z M 15 15 C 15.552 15 16 15.4 16 16 C 16 16.499999 15.552 17 15 17 C 14.448 17 14 16.499999 14 16 C 14 15.4 14.448 15 15 15 z M 15 18 C 15.552285 18 16 18.447715 16 19 L 16 20 C 16 20.552285 15.552285 21 15 21 C 14.447715 21 14 20.552285 14 20 L 14 19 C 14 18.447715 14.447715 18 15 18 z"/>
  <path style="opacity:0.5;fill:#ffffff" d="m 14,4 v 1 h 1 V 4 Z m 0,2 v 1 h 1 V 6 Z m 0,2 v 1 h 1 V 8 Z m 0,2 v 1 h 1 v -1 z m 0,2 v 1 h 1 v -1 z"/>
  <path style="opacity:0.3" d="M 15 5 L 15 6 L 16 6 L 16 5 L 15 5 z M 15 7 L 15 8 L 16 8 L 16 7 L 15 7 z M 15 9 L 15 10 L 16 10 L 16 9 L 15 9 z M 15 11 L 15 12 L 16 12 L 16 11 L 15 11 z M 15 13 L 15 14 L 16 14 L 16 13 L 15 13 z"/>
 </g>
</svg>
